X: 35369
T: Roslyn Castle
R: reel
M: 4/4
K: Dminor
FE|"Dm"D2A>B A2GA|"Bb"BAGF "A"E2F>E|"Dm"D2d>e f2ed|"A"^cdec "Dm"A2FG|
"Bb"BAGF "A"E2FG|"Dm"AFED "A"^c2de|"Dm"fde^c dAGA|FD E>D D2:|
A2|"Dm"d2de f2ed|a>gfg "A"e2d^c|"Dm"dAde f2ed|agfg "A"e2GA|
"Bb"BAGF "A"E2FG|"Dm"AFED "A"^c2de|"Dm"fde^c dAGA|FD E>D D2:|

